src/common/icons/svg/device.svg

<?xml version="1.0" standalone="no"?><!DOCTYPE svg PUBLIC "-//W3C//DTD SVG 1.1//EN" "http://www.w3.org/Graphics/SVG/1.1/DTD/svg11.dtd"><svg t="1527148641151" class="icon" style="" viewBox="0 0 1024 1024" version="1.1" xmlns="http://www.w3.org/2000/svg" p-id="10354" xmlns:xlink="http://www.w3.org/1999/xlink" width="200" height="200"><defs><style type="text/css"></style></defs><path d="M732.689655 0h-247.172414c-30.013793 0-52.965517 22.951724-52.965517 52.965517v812.137931h-70.62069v-812.137931c0-28.248276-22.951724-52.965517-52.965517-52.965517h-247.172414c-30.013793 0-52.965517 22.951724-52.965517 52.965517v918.068966c0 28.248276 22.951724 52.965517 52.965517 52.965517h247.172414c30.013793 0 52.965517-22.951724 52.965517-52.965517v-35.310345h70.62069v35.310345c0 28.248276 22.951724 52.965517 52.965517 52.965517h247.172414c30.013793 0 52.965517-22.951724 52.965517-52.965517v-918.068966c0-30.013793-22.951724-52.965517-52.965517-52.965517z m-564.965517 935.724138h-70.62069v-70.62069h70.62069v70.62069z m105.931034-776.827586h-176.551724v-70.62069h176.551724v70.62069z m317.793104 776.827586h-70.62069v-70.62069h70.62069v70.62069z m105.931034-776.827586h-176.551724v-70.62069h176.551724v70.62069zM963.972414 1024c-28.248276 0-51.2-22.951724-51.2-51.2v-921.6c0-28.248276 22.951724-51.2 51.2-51.2 28.248276 0 51.2 22.951724 51.2 51.2v921.6c0 28.248276-22.951724 51.2-51.2 51.2z" p-id="10355"></path></svg>

<svg class="icon" viewBox="0 0 1024 1024" xmlns="http://www.w3.org/2000/svg" width="200" height="200"><defs><style/></defs><path d="M732.69 0H485.517c-30.014 0-52.965 22.952-52.965 52.966v812.137H361.93V52.966C361.931 24.717 338.979 0 308.966 0H61.793C31.78 0 8.828 22.952 8.828 52.966v918.068c0 28.249 22.951 52.966 52.965 52.966h247.173c30.013 0 52.965-22.952 52.965-52.966v-35.31h70.62v35.31c0 28.249 22.952 52.966 52.966 52.966H732.69c30.013 0 52.965-22.952 52.965-52.966V52.966C785.655 22.952 762.703 0 732.69 0zM167.724 935.724h-70.62v-70.62h70.62v70.62zm105.931-776.827H97.103V88.276h176.552v70.62zm317.793 776.827h-70.62v-70.62h70.62v70.62zM697.38 158.897H520.828V88.276h176.551v70.62zM963.972 1024c-28.248 0-51.2-22.952-51.2-51.2V51.2c0-28.248 22.952-51.2 51.2-51.2 28.249 0 51.2 22.952 51.2 51.2v921.6c0 28.248-22.951 51.2-51.2 51.2z"/></svg>
